X:1
T:Gesänge für S., A., T. und B.
T:Um Mitternacht
T:Franz Lachner
T:Eduard Mörike
T:Um Mitternacht
T:Op. 169,3
T:Creative Commons Attribution Non Commercial 3.0
T:Creative Commons Attribution Non Commercial 3.0
T:Creative Commons Attribution Non Commercial 3.0
T:Creative Commons Attribution Non Commercial 3.0
C:Franz Lachner
Z:Eduard Mörike
Z:Creative Commons Attribution Non Commercial 3.0
%%score [ 1 2 3 4 ]
L:1/8
Q:1/8=78
M:2/4
K:C
V:1 treble nm="Sopran"
V:2 treble nm="Alt"
V:3 treble-8 nm="Tenor"
V:4 bass nm="Bass"
V:1
"^Adagio" z!pp! E E2- | ED E2- | EC FE | D4 | z G G2- |!<(! GB!<)! c2- | c!pp!G E C/D/ | E4 | %8
w: 1.~Ge- las-|* sen stieg|_ die Nacht an's|Land,|lehnt träu-|* mend an|_ der Ber- ge _|Wand,|
w: 2.~Das ur-|* alt al-|* te Schlum- mer-|lied,|sie ach-|* tet's nicht,|_ sie ist es _|müd';|
 z ^G G2- | G^F ^G2- |!<(! G^G!<)! B/A/G |!>(! ^G>^F!>)! F!p!F | =G3!<(! G | A3!<)! A | %14
w: ihr Au-|* ge sieht|_ die gold- * ne|Waa- ge nun der|Zeit in|glei- chen|
w: ihr klingt|_ des Him-|* mels Bläu- * e|sü- ßer noch, der|flücht'- gen|Stun- den|
 A/B/ c/B/!>(! A>B!>)! | G2 z!p! G | (c/d/e/c/ G)G | G2 GG | GF FE | D z z!mf! G | c/d/e/c/ GG | %21
w: Scha- * len _ stil- le|ruhn; und|ke- * * * * cker|rau- schen die|Quel- * len her-|vor, sie|sin- * * * gen der|
w: gleich- * ge- * schwung'- nes|Joch. Doch|im- * * * mer be-|hal- ten die|Quel- * len das|Wort, es|sin- * * * gen die|
!>(! G2 G!>)!!p!G | (G/_A/_B/A/ G)F | G2 z!f! G | g2 ee |!>(! e2!>)! c!p!c | Bc BA | A2 G!pp!G | %28
w: Mut- ter, der|Nacht, _ _ _ _ in's|Ohr 1+2.~vom|Ta- ge, vom|heu- te ge-|we- * se- nen|Ta- ge, vom|
w: Was- ser im|Schla- * * * fe noch|fort *|||||
 c2 G^G | A2 EF |[Q:1/4=33]"^ritard." (G3 F) | E4 |] %32
w: heu- te ge-|we- se- nen|Ta- *|ge.|
w: ||||
V:2
 z!pp! C C2- | CB, C2- | CC CC | D4 | z G G2- |!<(! GF!<)! E2- | E!pp!E CA, | B,4 | z B, E2- | %9
w: |||||||||
w: |||||||||
 E^D E2- |!<(! EE!<)! ^FE |!>(! E>^D!>)! D!p!D | E3!<(! G | G3!<)! G | ^FF!>(! F>F!>)! | %15
w: ||||||
w: ||||||
 G2 z!p! G | E2- EE | E2 DD | D/E/F/E/ DC | B,!<(!G (G/A/G/F/!<)! |!mf! E2) EE |!>(! E2 D!>)!!p!D | %22
w: ||||* sie sin- * * *|* gen *||
w: ||||* es sin- * * *|* gen *||
 _E2- ED | D!f!G G2- | G2 G^G |!>(! A2!>)! E!p!C | C2 CC | C2 C!pp!E | GF EE | ED CC | %30
w: |* vom Ta-|* ge, *||||||
w: ||||||||
 C2- C/B,/C/D/ | C4 |] %32
w: ||
w: ||
V:3
 z!pp! G G2- | GG G2- | GE AG | G4 | z G G2- |!<(! GG!<)! G2- | G!pp!c GA | ^G4 | z ^G B2- | %9
w: 1.~Ge- las-|* sen stieg|_ die Nacht an's|Land,|lehnt träu-|* mend an|_ der Ber- ge|Wand,|ihr Au-|
w: 2.~Das ur-|* alt al-|* te Schlum- mer-|lied,|sie ach-|* tet's nicht,|_ sie ist es|müd';|ihr klingt|
 BB B2- |!<(! BB!<)! BB |!>(! B>B!>)! B!p!B | B3!<(! B | c3!<)! c | c/d/ e/d/!>(! c>d!>)! | %15
w: * ge sieht|_ die gold- ne|Waa- ge nun der|Zeit in|glei- chen|Scha- * len _ stil- le|
w: _ des Him-|* mels Bläu- e|sü- ßer noch, der|flücht'- gen|Stun- den|gleich- * ge- * schwung'- nes|
 B2 z!p! G | G2- G A/B/ | c2 B_B | A2 AA | B!<(! Bcd!<)! |!mf! G2 G A/B/ |!>(! c2 B!>)!!p!_B | %22
w: ruhn; und|ke- * cker _|rau- schen die|Quel- len her-|vor, sie _ _|sin- gen der _|Mut- ter, der|
w: Joch. Doch|im- mer be- *|hal- ten die|Quel- len das|Wort, es _ _|sin- gen die _|Was- ser im|
 _B2- B_A | G2 z!f! G | e2 ed |!>(! c2!>)! c!p!C | C2 CC | C2 C!pp!c | ed cc | cB AA | (GADG) | %31
w: Nacht, _ in's|Ohr 1+2.~vom|Ta- ge, vom|heu- te ge-|we- se- nen|Ta- ge, vom|heu- * te ge-|we- * se- nen|Ta- * * *|
w: Schla- fe noch|fort *||||||||
 G4 |] %32
w: ge.|
w: |
V:4
 z!pp! C, C,2- | C,G,, C,2- | C,C, F,,C, | G,,4 | z E, E,2- |!<(! E,D,!<)! C,2- | C,!pp!C, C,F, | %7
w: |||||||
w: |||||||
 E,4 | z E, E,2- | E,B,, E,2- |!<(! E,E,!<)! ^D,E, |!>(! B,,>B,,!>)! B,,2 | z!p! E, G,!<(!E, | %13
w: ||||Waa- ge nun|der Zeit in|
w: ||||sü- ßer noch,|der flücht'- gen|
 E,!<)!C, A,,E, | D,D,!>(! D,>D,!>)! | G,,2 z!p! G, | C,2- C,C, | C,/D,/E,/C,/ G,,G,, | %18
w: |||||
w: |||||
 D,2 D, E,/F,/ | G,!<(!G,, (A,,/G,,/A,,/B,,/!<)! |!mf! C,2) C,C, |!>(! C,/D,/E,/C,/ G,,!>)!!p!G,, | %22
w: |* sie sin- * * *|* gen *||
w: |* es sin- * * *|* gen *||
 (G,,>_A,, _B,,)B,, | =B,,2 z!f! G,, | C,/D,/E,/D,/ C,B,, |!>(! A,,/B,,/C,/B,,/!>)! A,,!p!A,, | %26
w: ||||
w: ||||
 ^G,,A,, =G,,F,, | F,,2 E,,!pp! E,/D,/ | C,2 C, C,/B,,/ | A,,2 A,, G,,/F,,/ | %30
w: ||||
w: ||||
 (E,,F,, G,,A,,/B,,/) | C,4 |] %32
w: ||
w: ||

